modules/map-icons/icons/movie-theater.svg

<svg version="1.2" baseProfile="tiny" xmlns="http://www.w3.org/2000/svg" width="50" height="50" viewBox="0 0 50 50" overflow="inherit"><path d="M42.215 13h-5.674l5.709-5.474-5.648-5.526h-7.994l5.727 5.473-5.871 5.527h-6.789l5.838-5.474-5.767-5.526h-8.131l5.727 5.473-5.879 5.527h-5.754l5.841-5.474-5.778-5.526h-5.772v46h46v-46h-5.642l5.642 5.504-5.785 5.496zm-.215 29h-34v-6h34v6zm0-11h-34v-6h34v6z"/></svg>

<svg version="1.2" baseProfile="tiny" xmlns="http://www.w3.org/2000/svg" width="50" height="50" viewBox="0 0 50 50" overflow="inherit"><path d="M42.215 13h-5.674l5.709-5.474L36.602 2h-7.994l5.727 5.473L28.464 13h-6.789l5.838-5.474L21.746 2h-8.131l5.727 5.473L13.463 13H7.709l5.841-5.474L7.772 2H2v46h46V2h-5.642L48 7.504 42.215 13zM42 42H8v-6h34v6zm0-11H8v-6h34v6z"/></svg>
